papirus/32x32/mimetypes/audio-x-generic.svg

<?xml version="1.0" encoding="UTF-8" standalone="no"?>
<svg id="svg4346" xmlns:rdf="http://www.w3.org/1999/02/22-rdf-syntax-ns#" xmlns="http://www.w3.org/2000/svg" height="32" viewBox="0 0 32 32" width="32" version="1.1" xmlns:cc="http://creativecommons.org/ns#" xmlns:dc="http://purl.org/dc/elements/1.1/">
 <metadata id="metadata4351">
  <rdf:RDF>
   <cc:Work rdf:about="">
    <dc:format>image/svg+xml</dc:format>
    <dc:type rdf:resource="http://purl.org/dc/dcmitype/StillImage"/>
    <dc:title/>
   </cc:Work>
  </rdf:RDF>
 </metadata>
 <path id="path21637" fill="#8564c2" d="m7.25 4c-0.6925 0-1.25 0.5575-1.25 1.25v22.5c0 0.692 0.5575 1.25 1.25 1.25h17.5c0.692 0 1.25-0.558 1.25-1.25v-15.75l-6.875-1.125-1.125-6.875z"/>
 <path id="path21645" fill="#c2b1e0" d="m18 4v6.6667c0 0.736 0.597 1.333 1.333 1.333h6.667l-8-8z"/>
 <path id="path4154" stroke-width="3" fill="#fff" d="m13 14-0.000044 0.5v6.5s-0.15572 0.000385-0.49996-0.000009c-1.3807 0-2.5 1.1193-2.5 2.5s1.1193 2.5 2.5 2.5c1.3622-0.000835 2.473-1.0921 2.498-2.4541l0.002-0.0039v-6.542h5v4s-0.15572 0.000394-0.49995 0c-1.3807 0-2.5 1.1193-2.5 2.5s1.1193 2.5 2.5 2.5c1.3311-0.0015 2.4276-1.0456 2.4941-2.375l0.0059-0.01172v-9.6133h-9z"/>
 <path id="path4149" opacity=".1" fill="#fff" d="m7.25 4c-0.6925 0-1.25 0.5575-1.25 1.25v1c0-0.6925 0.5575-1.25 1.25-1.25h10.75v-1z"/>
</svg>

<?xml version="1.0" encoding="UTF-8" standalone="no"?>
<svg
   xmlns:dc="http://purl.org/dc/elements/1.1/"
   xmlns:cc="http://creativecommons.org/ns#"
   xmlns:rdf="http://www.w3.org/1999/02/22-rdf-syntax-ns#"
   xmlns:svg="http://www.w3.org/2000/svg"
   xmlns="http://www.w3.org/2000/svg"
   xmlns:sodipodi="http://sodipodi.sourceforge.net/DTD/sodipodi-0.dtd"
   xmlns:inkscape="http://www.inkscape.org/namespaces/inkscape"
   id="svg4346"
   height="32"
   width="32"
   version="1.1"
   viewBox="0 0 32 32"
   inkscape:version="0.91 r13725"
   sodipodi:docname="audio-x-generic.svg">
  <defs
     id="defs10" />
  <sodipodi:namedview
     pagecolor="#ffffff"
     bordercolor="#666666"
     borderopacity="1"
     objecttolerance="10"
     gridtolerance="10"
     guidetolerance="10"
     inkscape:pageopacity="0"
     inkscape:pageshadow="2"
     inkscape:window-width="1535"
     inkscape:window-height="876"
     id="namedview8"
     showgrid="false"
     inkscape:zoom="7.375"
     inkscape:cx="-13.966102"
     inkscape:cy="16"
     inkscape:window-x="65"
     inkscape:window-y="24"
     inkscape:window-maximized="1"
     inkscape:current-layer="svg4346" />
  <metadata
     id="metadata4351">
    <rdf:RDF>
      <cc:Work
         rdf:about="">
        <dc:format>image/svg+xml</dc:format>
        <dc:type
           rdf:resource="http://purl.org/dc/dcmitype/StillImage" />
        <dc:title />
      </cc:Work>
    </rdf:RDF>
  </metadata>
  <path
     id="path21637"
     d="M 7.25,4 C 6.5575,4 6,4.5575 6,5.25 l 0,22.5 C 6,28.442 6.5575,29 7.25,29 l 17.5,0 C 25.442,29 26,28.442 26,27.75 L 26,12 19.125,10.875 18,4 Z"
     inkscape:connector-curvature="0"
     style="fill:#8564c2"
     sodipodi:nodetypes="sssssscccs" />
  <path
     id="path21645"
     d="m 18,4 0,6.666667 C 18,11.403072 18.596949,12 19.333333,12 L 26,12 18,4 Z"
     inkscape:connector-curvature="0"
     style="fill:#c2b1e0" />
  <path
     id="path4154"
     stroke-width="3"
     d="m13 14-0.000044 0.5v6.5s-0.15572 0.000385-0.49996-0.000009c-1.3807 0-2.5 1.1193-2.5 2.5s1.1193 2.5 2.5 2.5c1.3622-0.000835 2.473-1.0921 2.498-2.4541l0.002-0.0039v-6.542h5v4s-0.15572 0.000394-0.49995 0c-1.3807 0-2.5 1.1193-2.5 2.5s1.1193 2.5 2.5 2.5c1.3311-0.0015 2.4276-1.0456 2.4941-2.375l0.0059-0.01172v-9.6133h-9z"
     fill="#fff" />
  <path
     id="path4149"
     d="M 7.25,4 C 6.5575,4 6,4.5575 6,5.25 l 0,1 C 6,5.5575 6.5575,5 7.25,5 L 18,5 18,4 Z"
     inkscape:connector-curvature="0"
     style="opacity:0.1;fill:#ffffff"
     sodipodi:nodetypes="sscsccs" />
</svg>
